X:660
T: O'Kane's
T: R\'il U\'i Chath\'ain
S: B.Breathnach:"Ceol Rince na hEireann" IV/133(i)
Z: B.Black
L: 1/8
M: 4/4
R: reel
K: C
CEGc dcec|AcGE ED D2|CEGc dcec|AcGc EC C2 :|
ecBc acgc|fdec Bddf|ecBc AcGc|EGAB cC C2|
ecBc acgc|fdec Bddf|ecBc AcGc|EGAB c2 c2 ||
